static/img/kroki/f0e0b6271e673277e13ce07d27216bbf.svg

<?xml version="1.0" encoding="us-ascii" standalone="no"?><svg xmlns="http://www.w3.org/2000/svg" xmlns:xlink="http://www.w3.org/1999/xlink" contentStyleType="text/css" height="374px" preserveAspectRatio="none" style="width:313px;height:374px;" version="1.1" viewBox="0 0 313 374" width="313px" zoomAndPan="magnify"><defs/><g><!--class gateway--><g id="elem_gateway"><rect codeLine="23" fill="#3D176E" height="39.7891" id="gateway" rx="2.5" ry="2.5" style="stroke:#000D19;stroke-width:0.5;" width="114" x="7" y="167.79"/><ellipse cx="22" cy="187.6845" fill="#ADD1B2" rx="11" ry="11" style="stroke:#181818;stroke-width:1.0;"/><path d="M24.9688,193.3252 Q24.3906,193.622 23.75,193.7627 Q23.1094,193.9189 22.4063,193.9189 Q19.9063,193.9189 18.5781,192.2783 Q17.2656,190.622 17.2656,187.497 Q17.2656,184.372 18.5781,182.7158 Q19.9063,181.0595 22.4063,181.0595 Q23.1094,181.0595 23.75,181.2158 Q24.4063,181.372 24.9688,181.6689 L24.9688,184.3877 Q24.3438,183.8095 23.75,183.5439 Q23.1563,183.2627 22.5313,183.2627 Q21.1875,183.2627 20.5,184.3408 Q19.8125,185.4033 19.8125,187.497 Q19.8125,189.5908 20.5,190.6689 Q21.1875,191.7314 22.5313,191.7314 Q23.1563,191.7314 23.75,191.4658 Q24.3438,191.1845 24.9688,190.6064 L24.9688,193.3252 Z " fill="#000000"/><text fill="#D9B8FF" font-family="Helvetica" font-size="17" lengthAdjust="spacing" textLength="72" x="41" y="193.5698">gateway</text></g><!--class gcp_external_vpn_gateway--><g id="elem_gcp_external_vpn_gateway"><rect codeLine="26" fill="#3D176E" height="39.7891" id="gcp_external_vpn_gateway" rx="2.5" ry="2.5" style="stroke:#000D19;stroke-width:0.5;" width="270" x="12" y="328.58"/><ellipse cx="27" cy="348.4745" fill="#ADD1B2" rx="11" ry="11" style="stroke:#181818;stroke-width:1.0;"/><path d="M29.9688,354.1152 Q29.3906,354.412 28.75,354.5527 Q28.1094,354.7089 27.4063,354.7089 Q24.9063,354.7089 23.5781,353.0683 Q22.2656,351.412 22.2656,348.287 Q22.2656,345.162 23.5781,343.5058 Q24.9063,341.8495 27.4063,341.8495 Q28.1094,341.8495 28.75,342.0058 Q29.4063,342.162 29.9688,342.4589 L29.9688,345.1777 Q29.3438,344.5995 28.75,344.3339 Q28.1563,344.0527 27.5313,344.0527 Q26.1875,344.0527 25.5,345.1308 Q24.8125,346.1933 24.8125,348.287 Q24.8125,350.3808 25.5,351.4589 Q26.1875,352.5214 27.5313,352.5214 Q28.1563,352.5214 28.75,352.2558 Q29.3438,351.9745 29.9688,351.3964 L29.9688,354.1152 Z " fill="#000000"/><text fill="#D9B8FF" font-family="Helvetica" font-size="17" lengthAdjust="spacing" textLength="228" x="46" y="354.3598">gcp_external_vpn_gateway</text></g><!--class gcp_resource--><g id="elem_gcp_resource"><rect codeLine="29" fill="#3D176E" height="39.7891" id="gcp_resource" rx="2.5" ry="2.5" style="stroke:#000D19;stroke-width:0.5;" width="150" x="156" y="167.79"/><ellipse cx="171" cy="187.6845" fill="#ADD1B2" rx="11" ry="11" style="stroke:#181818;stroke-width:1.0;"/><path d="M173.9688,193.3252 Q173.3906,193.622 172.75,193.7627 Q172.1094,193.9189 171.4063,193.9189 Q168.9063,193.9189 167.5781,192.2783 Q166.2656,190.622 166.2656,187.497 Q166.2656,184.372 167.5781,182.7158 Q168.9063,181.0595 171.4063,181.0595 Q172.1094,181.0595 172.75,181.2158 Q173.4063,181.372 173.9688,181.6689 L173.9688,184.3877 Q173.3438,183.8095 172.75,183.5439 Q172.1563,183.2627 171.5313,183.2627 Q170.1875,183.2627 169.5,184.3408 Q168.8125,185.4033 168.8125,187.497 Q168.8125,189.5908 169.5,190.6689 Q170.1875,191.7314 171.5313,191.7314 Q172.1563,191.7314 172.75,191.4658 Q173.3438,191.1845 173.9688,190.6064 L173.9688,193.3252 Z " fill="#000000"/><text fill="#D9B8FF" font-family="Helvetica" font-size="17" lengthAdjust="spacing" textLength="108" x="190" y="193.5698">gcp_resource</text></g><!--class resource--><g id="elem_resource"><rect codeLine="32" fill="#3D176E" height="39.7891" id="resource" rx="2.5" ry="2.5" style="stroke:#000D19;stroke-width:0.5;" width="113" x="90.5" y="7"/><ellipse cx="105.5" cy="26.8945" fill="#ADD1B2" rx="11" ry="11" style="stroke:#181818;stroke-width:1.0;"/><path d="M108.4688,32.5352 Q107.8906,32.832 107.25,32.9727 Q106.6094,33.1289 105.9063,33.1289 Q103.4063,33.1289 102.0781,31.4883 Q100.7656,29.832 100.7656,26.707 Q100.7656,23.582 102.0781,21.9258 Q103.4063,20.2695 105.9063,20.2695 Q106.6094,20.2695 107.25,20.4258 Q107.9063,20.582 108.4688,20.8789 L108.4688,23.5977 Q107.8438,23.0195 107.25,22.7539 Q106.6563,22.4727 106.0313,22.4727 Q104.6875,22.4727 104,23.5508 Q103.3125,24.6133 103.3125,26.707 Q103.3125,28.8008 104,29.8789 Q104.6875,30.9414 106.0313,30.9414 Q106.6563,30.9414 107.25,30.6758 Q107.8438,30.3945 108.4688,29.8164 L108.4688,32.5352 Z " fill="#000000"/><text fill="#D9B8FF" font-family="Helvetica" font-size="17" lengthAdjust="spacing" textLength="71" x="124.5" y="32.7798">resource</text></g><!--reverse link resource to gateway--><g id="link_resource_gateway"><path codeLine="35" d="M128.6529,63.0028 C112.7029,93.5228 90.02,136.9 74.05,167.46 " fill="none" id="resource-backto-gateway" style="stroke:#FFAF37;stroke-width:2.0;"/><polygon fill="none" points="136.99,47.05,123.3353,60.2238,133.9705,65.7819,136.99,47.05" style="stroke:#FFAF37;stroke-width:2.0;"/></g><!--reverse link gateway to gcp_external_vpn_gateway--><g id="link_gateway_gcp_external_vpn_gateway"><path codeLine="36" d="M82.3471,223.7928 C98.2971,254.3128 120.98,297.69 136.95,328.25 " fill="none" id="gateway-backto-gcp_external_vpn_gateway" style="stroke:#FFAF37;stroke-width:2.0;"/><polygon fill="none" points="74.01,207.84,77.0295,226.5719,87.6647,221.0138,74.01,207.84" style="stroke:#FFAF37;stroke-width:2.0;"/></g><!--reverse link gcp_resource to gcp_external_vpn_gateway--><g id="link_gcp_resource_gcp_external_vpn_gateway"><path codeLine="37" d="M212.4511,223.7498 C196.3011,254.2698 173.34,297.69 157.17,328.25 " fill="none" id="gcp_resource-backto-gcp_external_vpn_gateway" style="stroke:#FFAF37;stroke-width:2.0;"/><polygon fill="none" points="220.87,207.84,207.1479,220.9435,217.7544,226.5561,220.87,207.84" style="stroke:#FFAF37;stroke-width:2.0;"/></g><!--reverse link resource to gcp_resource--><g id="link_resource_gcp_resource"><path codeLine="38" d="M165.5489,62.9598 C181.6989,93.4798 204.66,136.9 220.83,167.46 " fill="none" id="resource-backto-gcp_resource" style="stroke:#FFAF37;stroke-width:2.0;"/><polygon fill="none" points="157.13,47.05,160.2456,65.7661,170.8521,60.1535,157.13,47.05" style="stroke:#FFAF37;stroke-width:2.0;"/></g><!--SRC=[XP3DRi8m48JlVWfBd952KHiYzK8ZLUq5LQNtQ1ElYKLYHsi7Id_UlQGGP182HyzycfbrhWHoB2ktuoMMAP9bTgrq1GGbdnEPRMmAGtma9SXfs3MVZNOtWGMKo5-msA1J6NI9ZrnbQutMyZlFUe9ilI9JQt68TmJQxYtKpgFY0goTEqSghHrwOqIKpgJiajtGqLHCmWViOOO4qX49Wa1CeYvoi-hgtITYgRwGJ_nFMnY7lPczYd_gwig6y4Rs3ctzmOrl88JIAtxlQU-7JQIHplHb3i9i6rf2OVqQwv3Gk5s5SUygZ6P2XXVXro6OPStNyHKutCAEVpFssqfPbU3dFa53aMmgdGmmXDRKbA6ldskdr-FFU3nkkrYRTrG7wjXPnmts0jTAx0y0]--></g></svg>

<svg xmlns="http://www.w3.org/2000/svg" width="313" height="374" viewBox="0 0 313 374"><rect width="114" height="39.789" x="7" y="167.79" fill="#3D176E" rx="2.5" ry="2.5" style="stroke:#000d19;stroke-width:.5"/><circle cx="22" cy="187.685" r="11" fill="#ADD1B2" style="stroke:#181818;stroke-width:1"/><path d="M24.969 193.325q-.578.297-1.219.438-.64.156-1.344.156-2.5 0-3.828-1.64-1.312-1.657-1.312-4.782t1.312-4.781q1.328-1.656 3.828-1.656.703 0 1.344.156.656.156 1.219.453v2.719q-.625-.578-1.219-.844-.594-.281-1.219-.281-1.343 0-2.031 1.078-.687 1.062-.687 3.156t.687 3.172q.688 1.062 2.031 1.062.625 0 1.219-.265.594-.281 1.219-.86z"/><text x="41" y="193.57" fill="#D9B8FF" font-family="Helvetica" font-size="17" textLength="72">gateway</text><rect width="270" height="39.789" x="12" y="328.58" fill="#3D176E" rx="2.5" ry="2.5" style="stroke:#000d19;stroke-width:.5"/><circle cx="27" cy="348.474" r="11" fill="#ADD1B2" style="stroke:#181818;stroke-width:1"/><path d="M29.969 354.115q-.578.297-1.219.438-.64.156-1.344.156-2.5 0-3.828-1.64-1.312-1.657-1.312-4.782t1.312-4.781q1.328-1.656 3.828-1.656.703 0 1.344.156.656.156 1.219.453v2.719q-.625-.579-1.219-.844-.594-.281-1.219-.281-1.343 0-2.031 1.078-.687 1.062-.687 3.156t.687 3.172q.688 1.062 2.031 1.062.625 0 1.219-.265.594-.281 1.219-.86z"/><text x="46" y="354.36" fill="#D9B8FF" font-family="Helvetica" font-size="17" textLength="228">gcp_external_vpn_gateway</text><rect width="150" height="39.789" x="156" y="167.79" fill="#3D176E" rx="2.5" ry="2.5" style="stroke:#000d19;stroke-width:.5"/><circle cx="171" cy="187.685" r="11" fill="#ADD1B2" style="stroke:#181818;stroke-width:1"/><path d="M173.969 193.325q-.578.297-1.219.438-.64.156-1.344.156-2.5 0-3.828-1.64-1.312-1.657-1.312-4.782t1.312-4.781q1.328-1.656 3.828-1.656.703 0 1.344.156.656.156 1.219.453v2.719q-.625-.578-1.219-.844-.594-.281-1.219-.281-1.344 0-2.031 1.078-.687 1.062-.687 3.156t.687 3.172q.688 1.062 2.031 1.062.625 0 1.219-.265.594-.281 1.219-.86z"/><text x="190" y="193.57" fill="#D9B8FF" font-family="Helvetica" font-size="17" textLength="108">gcp_resource</text><rect width="113" height="39.789" x="90.5" y="7" fill="#3D176E" rx="2.5" ry="2.5" style="stroke:#000d19;stroke-width:.5"/><circle cx="105.5" cy="26.895" r="11" fill="#ADD1B2" style="stroke:#181818;stroke-width:1"/><path d="M108.469 32.535q-.578.297-1.219.438-.64.156-1.344.156-2.5 0-3.828-1.64-1.312-1.657-1.312-4.782t1.312-4.781q1.328-1.656 3.828-1.656.703 0 1.344.156.656.156 1.219.453v2.719q-.625-.578-1.219-.844-.594-.281-1.219-.281-1.344 0-2.031 1.078-.687 1.062-.687 3.156t.687 3.172q.688 1.062 2.031 1.062.625 0 1.219-.265.594-.281 1.219-.86z"/><text x="124.5" y="32.78" fill="#D9B8FF" font-family="Helvetica" font-size="17" textLength="71">resource</text><g fill="none"><path d="M128.653 63.003C112.703 93.523 90.02 136.9 74.05 167.46" style="stroke:#ffaf37;stroke-width:2"/><path d="m136.99 47.05-13.655 13.174 10.635 5.558z" style="stroke:#ffaf37;stroke-width:2"/></g><g fill="none"><path d="M82.347 223.793c15.95 30.52 38.633 73.897 54.603 104.457" style="stroke:#ffaf37;stroke-width:2"/><path d="m74.01 207.84 3.02 18.732 10.635-5.558z" style="stroke:#ffaf37;stroke-width:2"/></g><path fill="none" d="M212.451 223.75c-16.15 30.52-39.111 73.94-55.281 104.5m63.7-120.41-13.722 13.103 10.606 5.613zM165.549 62.96c16.15 30.52 39.111 73.94 55.281 104.5m-63.7-120.41 3.116 18.716 10.606-5.613z" style="stroke:#ffaf37;stroke-width:2"/></svg>
